icon/lg/linux-mint.svg

<?xml version="1.0" encoding="UTF-8" standalone="no"?>
<svg viewBox="0 0 256 230" version="1.1" xmlns="http://www.w3.org/2000/svg" xmlns:xlink="http://www.w3.org/1999/xlink" preserveAspectRatio="xMidYMid" height="1em" width="1em">
  <defs>
    <linearGradient x1="9.54406763%" y1="12.7597724%" x2="68.9176518%" y2="69.8843591%" id="linearGradient-1">
      <stop stop-color="#C7F994" offset="0%"/>
      <stop stop-color="#87CF3E" offset="100%"/>
    </linearGradient>
    <linearGradient x1="19.8107318%" y1="89.7377988%" x2="67.5734625%" y2="31.7902333%" id="linearGradient-2">
      <stop stop-color="#3D3D3D" offset="0%"/>
      <stop stop-color="#000000" stop-opacity="0.11400651" offset="100%"/>
    </linearGradient>
  </defs>
  <g>
    <path d="M30.2232874,145.851422 L30.1805804,96.6773758 L30.1805804,81.9511909 L0,81.9511909 L0,0 L127.272192,0.599373998 L167.084904,0.685011632 C214.731761,0.685011632 256,36.7304284 256,84.3345555 L256,229.501167 L119.13845,229.501167 C71.5343454,229.501189 30.2232874,193.41282 30.2232874,145.851422 Z" opacity="0.26000001" fill="#000000"/>
    <path d="M237.716949,191.536796 L237.716949,85.9955378 C237.716949,50.7354513 206.795167,22.1527928 168.642586,22.1527928 L129.043896,22.1527928 L129.043896,22.0676259 L21.9445099,21.5996561 L21.9445099,60.1081882 L38.3849271,60.1081882 C49.8607105,60.1081882 51.8880247,68.0301204 51.8880247,78.9949877 L51.9731917,147.073709 C51.9731917,182.333817 82.8951015,210.916433 121.005099,210.916433 L215.0986,210.916433 C227.161459,210.916433 237.717013,203.277131 237.717013,191.536711 L237.716949,191.536796 Z" fill="url(#linearGradient-1)"/>
    <path d="M228.378176,200.453167 C204.315257,183.870804 187.272643,164.822935 172.916943,139.60667 C144.61828,87.3305143 151.235089,61.3801516 81.1576265,55.2608347 C60.9341216,55.2608347 47.4725197,50.7847705 26.185963,50.7847705 L26.185963,58.1982519 C26.1859652,58.1982743 34.5980117,62.4672757 41.9920647,62.4672757 C53.0181707,62.4672981 54.9306878,70.1160861 54.9306878,80.6512865 L55.0006263,145.901135 C55.0006196,179.779525 84.7556167,207.237202 121.372266,207.237202 L211.732812,207.237202 C218.365399,207.237202 224.323354,204.623472 228.378176,200.453167 L228.378176,200.453167 Z" opacity="0.17514122" fill="url(#linearGradient-2)"/>
    <path d="M144.633118,61.7149612 C136.046438,61.7149612 128.41691,64.9029261 122.286732,71.095449 C116.159616,77.284682 112.942501,85.0114431 112.942523,93.7313756 L112.942523,137.808657 L132.934768,137.808657 L132.934768,93.7313756 C132.934768,90.3891433 134.025316,87.7757932 136.411662,85.3652088 C138.805842,82.9469032 141.341152,81.8521474 144.633118,81.8521474 C147.994083,81.8521474 150.491346,82.9413977 152.890763,85.3652088 C155.277132,87.7757932 156.36768,90.3891433 156.36768,93.7313756 L156.36768,137.808657 L176.359954,137.808657 L176.359954,93.7313756 C176.359954,90.3891433 177.450502,87.7757932 179.836871,85.3652088 C182.236287,82.9413977 184.733551,81.8521474 188.09456,81.8521474 C191.386549,81.8521474 193.921791,82.9469032 196.315971,85.3652088 C198.702318,87.7757932 199.792888,90.3891433 199.792888,93.7313756 L199.901657,145.233463 C199.901657,156.219828 189.43917,165.479104 175.997885,165.479104 L111.530141,165.225624 C101.157518,165.225624 92.2984451,155.129481 92.2984451,142.154826 L92.2984451,45.169078 L73.392754,45.169078 L73.392754,145.8852 C73.392754,156.571154 77.3030011,165.941951 84.9100342,173.519525 C91.4119494,179.937306 99.2313672,183.734911 108.01702,184.674481 L108.01702,185.036841 L179.800749,185.036841 C190.831382,185.036841 200.52233,180.935312 208.340403,172.975997 L208.376659,172.975997 C215.025897,166.144516 218.913023,157.958846 219.857696,148.746524 L219.785184,93.7313756 C219.785184,85.0114431 216.568147,77.284682 210.44093,71.095449 C204.310826,64.9029261 196.68124,61.7149612 188.094583,61.7149612 C179.666064,61.7149612 172.291099,64.8491462 166.327639,70.5882885 C160.381613,64.858613 153.058168,61.7149612 144.633141,61.7149612 L144.633118,61.7149612 Z" fill-opacity="0.08040203" fill="#000000"/>
    <path d="M143.036565,62.2397518 C134.449882,62.2397518 126.820356,65.4277054 120.690174,71.6202369 C114.563044,77.80946 111.345933,85.5362341 111.345954,94.2561526 L111.345954,138.333449 L131.338216,138.333449 L131.338216,94.2561526 C131.338216,90.913938 132.428758,88.300573 134.815097,85.8899863 C137.20929,83.471694 139.744596,82.3769256 143.036565,82.3769256 C146.39752,82.3769256 148.894789,83.466187 151.294213,85.8899863 C153.680573,88.300573 154.771136,90.913938 154.771136,94.2561526 L154.771136,138.333449 L174.763377,138.333449 L174.763377,94.2561526 C174.763377,90.913938 175.85394,88.300573 178.240321,85.8899863 C180.639723,83.466187 183.136992,82.3769256 186.498012,82.3769256 C189.790002,82.3769256 192.325244,83.471694 194.719395,85.8899863 C197.105755,88.300573 198.196318,90.913938 198.196318,94.2561526 L198.304965,145.758254 C198.304965,156.744615 187.842475,166.003882 174.401193,166.003882 L109.933464,165.750409 C99.5608375,165.750409 90.7017703,155.654265 90.7017703,142.679608 L90.7017703,45.6938685 L71.7960803,45.6938685 L71.7960803,146.409983 C71.7960803,157.095934 75.7063305,166.466729 83.3133586,174.044322 C89.8152659,180.462087 97.634699,184.622224 106.420318,185.561792 L178.204077,185.561622 C189.234709,185.561622 198.925637,181.460098 206.743726,173.500791 L206.780012,173.500791 C213.429222,166.669294 217.316377,158.483643 218.261047,149.271314 L218.188687,94.2561526 C218.188687,85.5362341 214.971682,77.80946 208.844467,71.6202369 C202.714348,65.4277054 195.084759,62.2397518 186.498119,62.2397518 C178.069603,62.2397518 170.694639,65.3739371 164.731162,71.1130775 C158.785123,65.383393 151.461708,62.2397518 143.036671,62.2397518 L143.036565,62.2397518 Z" fill="#FFFFFF"/>
    <path d="M131.279773,165.817411 L131.279773,185.561622 L178.238977,185.561622 C189.269566,185.561622 198.903246,181.447611 206.721313,173.488304 L206.788123,173.488304 C213.437355,166.656786 217.316441,158.487293 218.261111,149.274964 L218.261111,138.068791 L198.31679,138.068791 L198.31679,145.739683 C198.31679,156.726109 187.878228,165.950818 174.436946,165.950818 L131.279858,165.817411 L131.279773,165.817411 Z" opacity="0.3" fill="#52A800"/>
    <path d="M120.379411,225.53178 C74.9354525,225.53178 35.4989638,191.080972 35.4989638,145.67774 L35.4581947,90.5484247 L35.4581947,76.4904827 L6.6471224,76.4904827 L6.6471224,6.44453365 L128.144136,7.0167102 L166.150312,7.09846191 C211.635103,7.09846191 251.030737,41.5082666 251.030737,86.9522675 L251.030737,225.531759 L120.379475,225.531759 L120.379411,225.53178 Z M232.517904,188.357872 L232.517904,86.9522888 C232.517904,53.0738916 202.807819,25.6112528 166.150248,25.6112528 L128.103239,25.6112528 L128.103239,25.5295011 L25.2006184,25.0798667 L25.2006184,57.9777131 L36.7277581,57.9777131 C44.5537229,57.9777131 53.9707508,65.3321007 53.9707508,76.1244143 L54.0525025,145.637184 C54.0525025,179.515603 83.7627368,206.978199 120.379389,206.978199 L210.785782,206.978199 C222.375932,206.978199 232.517882,199.638241 232.517882,188.357872 L232.517904,188.357872 Z" fill="#FFFFFF"/>
  </g>
</svg>

<svg width="256" height="230" xmlns="http://www.w3.org/2000/svg" preserveAspectRatio="xMidYMid"><defs><linearGradient x1="9.544%" y1="12.76%" x2="68.918%" y2="69.884%" id="a"><stop stop-color="#C7F994" offset="0%"/><stop stop-color="#87CF3E" offset="100%"/></linearGradient><linearGradient x1="19.811%" y1="89.738%" x2="67.573%" y2="31.79%" id="b"><stop stop-color="#3D3D3D" offset="0%"/><stop stop-opacity=".114" offset="100%"/></linearGradient></defs><path d="m30.223 145.851-.042-49.174V81.951H0V0l127.272.6 39.813.085C214.732.685 256 36.73 256 84.335V229.5H119.138c-47.604 0-88.915-36.088-88.915-83.65Z" opacity=".26"/><path d="M237.717 191.537V85.996c0-35.26-30.922-63.843-69.074-63.843h-39.6v-.085L21.946 21.6v38.508h16.44c11.476 0 13.503 7.922 13.503 18.887l.085 68.079c0 35.26 30.922 63.842 69.032 63.842H215.1c12.062 0 22.618-7.639 22.618-19.38Z" fill="url(#a)"/><path d="M228.378 200.453c-24.063-16.582-41.105-35.63-55.461-60.846-28.299-52.276-21.682-78.227-91.76-84.346-20.223 0-33.684-4.476-54.971-4.476v7.413s8.412 4.27 15.806 4.27c11.026 0 12.939 7.648 12.939 18.183l.07 65.25c0 33.879 29.755 61.336 66.371 61.336h90.36c6.633 0 12.591-2.614 16.646-6.784Z" opacity=".175" fill="url(#b)"/><path d="M144.633 61.715c-8.587 0-16.216 3.188-22.346 9.38-6.127 6.19-9.344 13.916-9.344 22.636v44.078h19.992V93.73c0-3.342 1.09-5.955 3.477-8.366 2.394-2.418 4.93-3.513 8.221-3.513 3.361 0 5.858 1.09 8.258 3.513 2.386 2.41 3.477 5.024 3.477 8.366v44.078h19.992V93.73c0-3.342 1.09-5.955 3.477-8.366 2.4-2.424 4.897-3.513 8.258-3.513 3.292 0 5.827 1.095 8.221 3.513 2.386 2.41 3.477 5.024 3.477 8.366l.109 51.502c0 10.987-10.463 20.246-23.904 20.246l-64.468-.253c-10.372 0-19.232-10.097-19.232-23.071V45.169H73.393v100.716c0 10.686 3.91 20.057 11.517 27.635 6.502 6.417 14.321 10.215 23.107 11.154v.363h71.784c11.03 0 20.721-4.102 28.54-12.061h.036c6.649-6.831 10.536-15.017 11.48-24.23l-.072-55.015c0-8.72-3.217-16.446-9.344-22.636-6.13-6.192-13.76-9.38-22.346-9.38-8.429 0-15.804 3.134-21.767 8.873-5.946-5.73-13.27-8.873-21.695-8.873Z" fill-opacity=".08"/><path d="M143.037 62.24c-8.587 0-16.217 3.188-22.347 9.38-6.127 6.19-9.344 13.916-9.344 22.636v44.077h19.992V94.256c0-3.342 1.09-5.955 3.477-8.366 2.394-2.418 4.93-3.513 8.222-3.513 3.36 0 5.858 1.09 8.257 3.513 2.387 2.41 3.477 5.024 3.477 8.366v44.077h19.992V94.256c0-3.342 1.09-5.955 3.477-8.366 2.4-2.424 4.897-3.513 8.258-3.513 3.292 0 5.827 1.095 8.221 3.513 2.387 2.41 3.477 5.024 3.477 8.366l.109 51.502c0 10.987-10.463 20.246-23.904 20.246l-64.468-.254c-10.372 0-19.231-10.096-19.231-23.07V45.694H71.796V146.41c0 10.686 3.91 20.057 11.517 27.634 6.502 6.418 14.322 10.578 23.107 11.518h71.784c11.03 0 20.722-4.102 28.54-12.061h.036c6.65-6.832 10.536-15.017 11.481-24.23l-.072-55.015c0-8.72-3.217-16.447-9.345-22.636-6.13-6.192-13.76-9.38-22.346-9.38-8.428 0-15.803 3.134-21.767 8.873-5.946-5.73-13.27-8.873-21.694-8.873Z" fill="#FFF"/><path d="M131.28 165.817v19.745h46.959c11.03 0 20.664-4.114 28.482-12.074h.067c6.65-6.831 10.528-15 11.473-24.213v-11.206h-19.944v7.67c0 10.987-10.439 20.212-23.88 20.212l-43.157-.134Z" opacity=".3" fill="#52A800"/><path d="M120.38 225.532c-45.445 0-84.881-34.451-84.881-79.854l-.04-55.13V76.49H6.646V6.445l121.497.572 38.006.081c45.485 0 84.88 34.41 84.88 79.854v138.58H120.38Zm112.138-37.174V86.952c0-33.878-29.71-61.34-66.368-61.34h-38.047v-.082l-102.902-.45v32.898h11.527c7.826 0 17.243 7.354 17.243 18.146l.082 69.513c0 33.879 29.71 61.341 66.326 61.341h90.407c11.59 0 21.732-7.34 21.732-18.62Z" fill="#FFF"/></svg>
